React/src/assets/images/frontend/sass.svg

<svg width="130" height="130" viewBox="0 0 130 130" fill="none" xmlns="http://www.w3.org/2000/svg">
<path d="M108.952 25.019C105.782 12.5811 85.1603 8.49416 65.6426 15.4272C54.0261 19.5551 41.4552 26.0314 32.4122 34.4881C21.6615 44.5435 19.9469 53.2934 20.6559 56.9508C23.1476 69.8524 40.828 78.2886 48.0952 84.5434V84.5809C45.9511 85.6342 30.2682 93.5728 26.5971 101.689C22.7249 110.251 27.2141 116.393 30.1864 117.222C39.3964 119.785 48.845 115.177 53.9273 107.599C58.8288 100.288 58.4198 90.8493 56.2894 86.1523C59.2276 85.3785 62.6533 85.0309 67.0061 85.5387C79.2907 86.9738 81.7005 94.6431 81.2404 97.854C80.7802 101.065 78.2033 102.831 77.3409 103.362C76.4786 103.894 76.2161 104.082 76.2877 104.477C76.3934 105.053 76.7922 105.033 77.525 104.906C78.5374 104.736 83.9741 102.295 84.2093 96.3713C84.5058 88.8485 77.2966 80.4327 64.5314 80.6542C59.2754 80.7462 55.969 81.2439 53.5796 82.1335C53.4023 81.9324 53.2251 81.7313 53.0376 81.5336C45.1467 73.1144 30.5579 67.1596 31.1749 55.8396C31.3998 51.7254 32.8314 40.8895 59.2072 27.7459C80.8143 16.9782 98.1129 19.9436 101.102 26.5086C105.373 35.8891 91.8582 53.3241 69.4194 55.8396C60.8706 56.7974 56.3678 53.4843 55.2498 52.2504C54.0704 50.9517 53.8966 50.8937 53.4535 51.1357C52.7377 51.5345 53.191 52.6798 53.4535 53.365C54.125 55.1102 56.8723 58.2018 61.5591 59.7391C65.6835 61.0923 75.7185 61.8353 87.8599 57.1417C101.453 51.8754 112.071 37.2457 108.952 25.019V25.019ZM51.1118 88.3986C52.1309 92.1685 52.0185 95.6827 50.9652 98.863C50.8493 99.2175 50.7198 99.5651 50.58 99.9128C50.4403 100.257 50.2903 100.598 50.1267 100.935C49.3154 102.619 48.2247 104.194 46.8919 105.649C42.822 110.087 37.1399 111.768 34.7028 110.353C32.0713 108.826 33.3905 102.568 38.1045 97.5847C43.18 92.2196 50.4812 88.7701 50.4812 88.7701L50.471 88.7496C50.6823 88.6337 50.8936 88.5179 51.1118 88.3986Z" fill="#EC407A" stroke="#EC407A" stroke-width="5"/>
</svg>

<svg width="130" height="130" fill="none" xmlns="http://www.w3.org/2000/svg"><path d="M108.952 25.019c-3.17-12.438-23.792-16.525-43.31-9.592-11.616 4.128-24.187 10.604-33.23 19.061-10.75 10.056-12.465 18.805-11.756 22.463 2.492 12.901 20.172 21.338 27.44 27.592v.038c-2.145 1.053-17.828 8.992-21.499 17.108-3.872 8.562.617 14.704 3.59 15.533 9.21 2.563 18.658-2.045 23.74-9.623 4.902-7.311 4.493-16.75 2.362-21.447 2.939-.773 6.364-1.121 10.717-.613 12.285 1.435 14.695 9.104 14.234 12.315-.46 3.211-3.037 4.977-3.9 5.508-.861.532-1.124.72-1.052 1.115.105.576.504.556 1.237.429 1.012-.17 6.45-2.611 6.684-8.535.297-7.522-6.912-15.938-19.678-15.717-5.256.092-8.562.59-10.951 1.48-.178-.202-.355-.403-.542-.6-7.891-8.42-22.48-14.374-21.863-25.694.225-4.115 1.656-14.95 28.032-28.094 21.607-10.768 38.906-7.802 41.895-1.237 4.271 9.38-9.244 26.815-31.683 29.33-8.548.958-13.051-2.355-14.17-3.589-1.179-1.298-1.352-1.356-1.796-1.114-.715.398-.262 1.544 0 2.229.672 1.745 3.42 4.837 8.106 6.374 4.124 1.353 14.16 2.096 26.3-2.597 13.594-5.267 24.212-19.896 21.093-32.123v0zm-57.84 63.38c1.019 3.77.907 7.284-.147 10.464a16.826 16.826 0 01-.838 2.072c-.812 1.684-1.902 3.259-3.235 4.714-4.07 4.438-9.752 6.119-12.19 4.704-2.63-1.527-1.311-7.785 3.403-12.768C43.18 92.22 50.48 88.77 50.48 88.77l-.01-.02.64-.351z" fill="#EC407A" stroke="#EC407A" stroke-width="5"/></svg>
